X: 259
M: C|
L: 1/8
K: Dm
d2 f4 ed | ^c2 e4 A2 | B2A2 def2 | e2d2 ^c2 :|\
|: a2 |\
g2fe f2F2 | A2 c4 BA | B2 g4 fe | f2 b4 a2 |\
gfed e2^c2 | d6 :|

